X:4
T:Bill McElvoy's
R:reel
Z:Transcribed by Dave Marshall
M:C|
K:Gmix
|: d2cA d~G3 | DGBd gdBd | c2Bd c~F3 | CFAc fagf |
d2cA d~G3 | DGBd gdBd | c2Ac fagf | dBcA G4 :|
K:G 
|: ~g3a bgaf | gbag fddf | e~c3 gceg | fgag fdef |
~g3a bgaf | gbag fddf | e~c3 gceg | fdcA G4 :|
